src/Icon/svgs/StarHalf.svg

<svg width="24" height="24" viewBox="0 0 24 24" fill="none" xmlns="http://www.w3.org/2000/svg">
<path fill-rule="evenodd" clip-rule="evenodd" d="M8.46323 17.2969L11.9999 15.4375L12.9306 15.9267L15.5372 17.2968L14.8622 13.3587L15.6149 12.6249L17.7232 10.5696L13.769 9.99503L13.3036 9.05225L12.0003 6.41195L10.2308 9.99503L9.19067 10.1462L6.27778 10.5696L9.13905 13.3589L8.9612 14.3953L8.46323 17.2969ZM7.67301 19.972C6.64301 20.514 5.96701 20.023 6.16301 18.876L6.99001 14.057L3.48901 10.644C2.65501 9.831 2.91401 9.037 4.06601 8.87L8.90301 8.167L11.068 3.783C11.583 2.739 12.418 2.739 12.933 3.783L15.097 8.167L19.935 8.87C21.087 9.037 21.345 9.831 20.512 10.644L17.011 14.057L17.837 18.876C18.033 20.023 17.359 20.514 16.328 19.972L12 17.697L7.67301 19.972Z" fill="#DDE0E2"/>
<path fill-rule="evenodd" clip-rule="evenodd" d="M7.67301 19.972C6.64301 20.514 5.96701 20.023 6.16301 18.876L6.99001 14.057L3.48901 10.644C2.65501 9.831 2.91401 9.037 4.06601 8.87L8.90301 8.167L11.068 3.783C11.3254 3.2613 11.6626 3.0003 11.9999 3C12 3.0003 12 17.697 12 17.697L7.67301 19.972Z" fill="#1B1C1D"/>
</svg>

<svg xmlns="http://www.w3.org/2000/svg" width="24" height="24" fill="none" fill-rule="evenodd"><path d="M8.463 17.297L12 15.438l.931.489 2.607 1.37-.675-3.938.753-.734 2.108-2.055-3.954-.575-.465-.943L12 6.412l-1.769 3.583-1.04.151-2.913.423 2.861 2.789-.178 1.036-.498 2.902zm-.79 2.675c-1.03.542-1.706.051-1.51-1.096l.827-4.819-3.501-3.413c-.834-.813-.575-1.607.577-1.774l4.837-.703 2.165-4.384c.515-1.044 1.35-1.044 1.865 0l2.164 4.384 4.838.703c1.152.167 1.41.961.577 1.774l-3.501 3.413.826 4.819c.196 1.147-.478 1.638-1.509 1.096L12 17.697l-4.327 2.275z" fill="#dde0e2"/><path d="M7.673 19.972c-1.03.542-1.706.051-1.51-1.096l.827-4.819-3.501-3.413c-.834-.813-.575-1.607.577-1.774l4.837-.703 2.165-4.384C11.325 3.261 11.663 3 12 3v14.697l-4.327 2.275z" fill="#1B1C1D"/></svg>
